packages/style-dictionary/src/assets/icons/pig.svg

<?xml version="1.0" encoding="UTF-8"?>
<svg width="24px" height="24px" viewBox="0 0 24 24" version="1.1" xmlns="http://www.w3.org/2000/svg" xmlns:xlink="http://www.w3.org/1999/xlink">
    <title>pig</title>
    <g id="pig" stroke="none" stroke-width="1" fill="none" fill-rule="evenodd">
        <path d="M10.5,3.5 C12.0629909,3.5 13.419958,4.36860955 14.0776596,5.63734821 L13.8132828,5.5938196 C14.2754135,5.66055628 14.7277911,5.76243265 15.1662192,5.89787143 L15.4923591,6.00571882 L15.212,5.912 L16.6927098,4.62304531 C16.9522079,4.3969112 17.3476682,4.49697013 17.4788752,4.79803704 L17.5059401,4.87741898 L18.189,7.58 L18.2927317,7.67040153 C19.3301529,8.6225424 20.0430083,9.81069121 20.3419611,11.1084313 L20.3996546,11.3881498 L20.427,11.561 L20.5520151,11.6048364 C21.0218554,11.7908903 21.3753161,12.2074146 21.4729528,12.7149651 L21.4931334,12.85554 L21.5,13 L21.5,15 C21.5,15.7796961 20.9051119,16.4204487 20.14446,16.4931334 L20,16.5 L19.065,16.5 L19.0314251,16.5446532 L18.8147708,16.7998528 L18.8147708,16.7998528 L18.5848445,17.046403 L18.5,17.128 L18.5,19 C18.5,19.7309651 17.9771491,20.3398119 17.2850349,20.4729528 L17.14446,20.4931334 L17,20.5 L16,20.5 C15.3177659,20.5 14.7419105,20.0445388 14.5599138,19.4206145 L14.5270478,19.2844425 L14.525,19.271 L14.4129307,19.2987539 C14.0405936,19.3786284 13.6608834,19.4351021 13.2760028,19.4675011 L12.8894802,19.4918503 L12.5,19.5 C11.9791592,19.5 11.4648941,19.4564389 10.9624186,19.3709115 L10.587854,19.2989222 L10.474,19.271 L10.4400866,19.4210962 C10.2840891,19.9554756 9.8387263,20.36644 9.28503493,20.4729528 L9.14446001,20.4931334 L9,20.5 L8,20.5 C7.22030388,20.5 6.57955132,19.9051119 6.50686658,19.1444039 L6.5,18.9999327 L6.5,17.13 L6.44661245,17.0784559 C5.34512087,15.9646102 4.6681158,14.5742141 4.52743066,13.0834348 L4.51887117,12.946579 C4.03500635,12.8494166 3.46737148,12.6237905 3.03442167,12.3033129 C2.15386671,11.6515095 1.81533729,10.6643983 2.24770558,9.44743117 C2.34015309,9.18722342 2.62603665,9.05122688 2.88624439,9.14367438 C3.14645214,9.23612188 3.28244869,9.52200545 3.19000118,9.78221319 C2.90980782,10.5708606 3.09184666,11.101664 3.62937831,11.4995551 C3.88580324,11.6893656 4.22659447,11.8367872 4.52672347,11.9210415 C4.66510394,10.4074117 5.35194664,9.0907559 6.54533955,7.95222449 C6.51533735,7.76277446 6.5,7.56806661 6.5,7.37090478 C6.5,5.22877135 8.29497794,3.5 10.5,3.5 Z M16.735,5.911 L15.6545002,6.85419053 C15.5186458,6.97257797 15.3295975,7.00870469 15.1596629,6.94875286 L14.9796564,6.88774689 L14.9796564,6.88774689 L14.7977202,6.83106081 L14.449,6.736 L14.4538126,6.78041281 C14.4842238,6.97288783 14.5,7.17007977 14.5,7.37090478 C14.5,7.59399769 14.4804413,7.81466027 14.4419845,8.03108674 C14.4205964,8.18993357 14.3951202,8.3535725 14.3636438,8.52004995 C14.5917303,8.53382617 14.8246188,8.55523361 15.0607652,8.58414686 C15.3348607,8.61770654 15.5298535,8.86711036 15.4962939,9.14120589 C15.4627342,9.41530142 15.2133304,9.61029425 14.9392348,9.57673458 C14.5306586,9.52670937 14.1335745,9.5013153 13.7480618,9.4987804 C13.7465958,9.49998305 13.7442088,9.5 13.7418187,9.5 C13.3628601,9.5 12.9903125,9.51865623 12.6228911,9.55883019 C11.5436964,9.68220939 10.5683124,9.99297207 9.69836579,10.443908 C9.30272172,10.6489897 8.96109315,10.8679187 8.67511981,11.0854516 L8.50321247,11.2213936 L8.38821729,11.3207473 C8.37382932,11.3339264 8.3618391,11.3453327 8.35225985,11.3548422 C8.1562859,11.54939 7.83970552,11.5482338 7.64515778,11.3522598 C7.45061004,11.1562859 7.45176621,10.8397055 7.64774015,10.6451578 C7.73229244,10.5612208 7.83847938,10.4666325 7.96609173,10.3646801 L8.00328341,10.3954161 C7.68946127,10.152546 7.41790951,9.8682135 7.19528799,9.55291123 C7.14069125,9.48071335 7.08795263,9.4081565 7.03771325,9.33531123 L6.89971741,9.12449352 L6.862,9.061 L6.74810876,9.18958932 C6.0366151,10.023894 5.62784699,10.9436782 5.52557638,11.9749519 L5.50639628,12.2351081 L5.5,12.5 C5.5,14.0189024 6.16213839,15.4521402 7.34162228,16.5540977 C7.42260118,16.6297539 7.47556679,16.7295742 7.49350433,16.837402 L7.50028011,16.9195217 L7.5,19 C7.5,19.2454599 7.67687516,19.4496084 7.91012437,19.4919443 L8,19.5 L9,19.5 C9.24545989,19.5 9.44960837,19.3231248 9.49194433,19.0895283 L9.5,18.9995054 L9.500366,18.6297551 C9.50069829,18.2938309 9.8255908,18.0537959 10.1467882,18.1521697 C10.895131,18.3813661 11.687767,18.5 12.5,18.5 C13.3125757,18.5 14.1055369,18.3812658 14.8541549,18.1518808 C15.149095,18.0615078 15.4470243,18.2564791 15.4941839,18.5488063 L15.5006376,18.6308045 L15.5,19 C15.5,19.2454599 15.6768752,19.4496084 15.9101244,19.4919443 L16,19.5 L17,19.5 C17.2454599,19.5 17.4496084,19.3231248 17.4919443,19.0897519 L17.5,18.9998238 L17.5007334,16.9183312 C17.5007822,16.7799231 17.558201,16.6477271 17.659319,16.5532181 C17.9461053,16.2851759 18.2037619,15.9958284 18.4276834,15.690245 C18.5396089,15.5375014 18.7282187,15.4610927 18.9148957,15.492868 L18.9570125,15.4982066 L18.9570125,15.4982066 L19,15.5 L20,15.5 C20.2454599,15.5 20.4496084,15.3231248 20.4919443,15.0898756 L20.5,15 L20.5,13 C20.5,12.7545401 20.3231248,12.5503916 20.0937906,12.5080338 L20.0055742,12.4999689 L19.9837361,12.5002124 C19.7224048,12.503126 19.5029158,12.3042889 19.4800751,12.0439413 C19.3528306,10.5935534 18.616769,9.24768029 17.4190921,8.23302869 C17.3594568,8.18250668 17.3127788,8.11895644 17.2823885,8.04771616 L17.2575509,7.97411025 L16.735,5.911 Z M17,11 C17.5522847,11 18,11.4477153 18,12 C18,12.5522847 17.5522847,13 17,13 C16.4477153,13 16,12.5522847 16,12 C16,11.4477153 16.4477153,11 17,11 Z M10.5,4.5 C8.83902881,4.5 7.5,5.7896396 7.5,7.37090478 C7.5,7.94409544 7.67650996,8.48979496 7.99442532,8.95067049 C8.1492026,9.15004466 8.32631878,9.34494159 8.51880561,9.51811774 L8.7071549,9.67644781 L8.828,9.765 L8.87015622,9.74056228 C10.0341465,9.07743307 11.2101593,8.71712963 12.4294283,8.57406336 C12.4876121,8.56706009 12.5453324,8.56048585 12.6033059,8.55439756 C12.646994,8.55077468 12.6907574,8.54666543 12.7345794,8.54282434 C12.9224158,8.52437996 13.1056802,8.51262227 13.2913489,8.50574065 C13.2922943,8.45358152 13.3026991,8.39883663 13.3228597,8.34537899 C13.3756628,8.20536716 13.4169391,8.06154928 13.4463134,7.91484956 C13.4874257,7.57373327 13.4961541,7.26290365 13.4740685,6.99760257 L13.4551365,6.87391172 C13.2093695,5.5280928 11.98301,4.5 10.5,4.5 Z" id="Path-14" fill="#303846"></path>
    </g>
</svg>

<svg xmlns="http://www.w3.org/2000/svg" width="24" height="24" viewBox="0 0 24 24">
    <g fill="none" fill-rule="evenodd">
        <g fill="#313845">
            <g>
                <g>
                    <path d="M10.5 3.5c1.563 0 2.92.869 3.578 2.137l-.265-.043c.462.067.915.168 1.353.304l.326.108-.28-.094 1.48-1.289c.26-.226.656-.126.787.175l.027.08.683 2.702.104.09c1.037.953 1.75 2.14 2.049 3.438l.058.28.027.173.125.044c.47.186.823.602.921 1.11l.02.14.007.145v2c0 .78-.595 1.42-1.356 1.493L20 16.5h-.935l-.034.045-.216.255-.23.246-.085.082V19c0 .731-.523 1.34-1.215 1.473l-.14.02L17 20.5h-1c-.682 0-1.258-.455-1.44-1.08l-.033-.136-.002-.013-.112.028c-.372.08-.752.136-1.137.169l-.387.024-.389.008c-.52 0-1.035-.044-1.538-.13l-.374-.071-.114-.028-.034.15c-.156.534-.601.945-1.155 1.052l-.14.02L9 20.5H8c-.78 0-1.42-.595-1.493-1.356L6.5 19v-1.87l-.053-.052c-1.102-1.113-1.779-2.504-1.92-3.995l-.008-.136c-.484-.098-1.052-.323-1.485-.644-.88-.651-1.219-1.639-.786-2.856.092-.26.378-.396.638-.303.26.092.396.378.304.638-.28.789-.098 1.32.44 1.718.256.19.597.337.897.421.138-1.514.825-2.83 2.018-3.969-.03-.19-.045-.384-.045-.581 0-2.142 1.795-3.871 4-3.871zm6.235 2.411l-1.08.943c-.136.119-.325.155-.495.095l-.18-.061-.182-.057-.349-.095.005.044c.03.193.046.39.046.59 0 .224-.02.445-.058.661-.021.159-.047.323-.078.489.228.014.46.035.697.064.274.034.469.283.435.557-.033.274-.283.47-.557.436-.408-.05-.805-.076-1.19-.078l-.007.001c-.38 0-.752.019-1.12.059-1.078.123-2.054.434-2.924.885-.395.205-.737.424-1.023.641l-.172.136-.115.1-.036.034c-.196.194-.512.193-.707-.003-.194-.196-.193-.512.003-.707.084-.084.19-.178.318-.28l.037.03c-.314-.242-.585-.527-.808-.842-.054-.072-.107-.145-.157-.218l-.138-.21-.038-.064-.114.129c-.711.834-1.12 1.754-1.222 2.785l-.02.26-.006.265c0 1.519.662 2.952 1.842 4.054.08.076.134.176.152.283l.006.083V19c0 .245.177.45.41.492L8 19.5h1c.245 0 .45-.177.492-.41L9.5 19v-.37c0-.336.326-.576.647-.478.748.23 1.54.348 2.353.348.813 0 1.606-.119 2.354-.348.295-.09.593.104.64.397l.007.082L15.5 19c0 .245.177.45.41.492l.09.008h1c.245 0 .45-.177.492-.41L17.5 19v-2.082c0-.138.058-.27.16-.365.286-.268.544-.557.768-.863.112-.152.3-.229.487-.197l.042.005.043.002h1c.245 0 .45-.177.492-.41L20.5 15v-2c0-.245-.177-.45-.406-.492l-.088-.008h-.022c-.262.003-.481-.196-.504-.456-.127-1.45-.863-2.796-2.06-3.811-.06-.05-.107-.114-.138-.185l-.024-.074-.523-2.063zM17 11c.552 0 1 .448 1 1s-.448 1-1 1-1-.448-1-1 .448-1 1-1zm-6.5-6.5c-1.661 0-3 1.29-3 2.87 0 .574.177 1.12.494 1.58.155.2.332.395.525.568l.188.158.121.089.042-.024c1.164-.664 2.34-1.024 3.56-1.167l.173-.02.132-.011c.187-.019.37-.03.556-.037.001-.052.012-.107.032-.16.053-.14.094-.284.123-.431.041-.341.05-.652.028-.917l-.019-.124C13.21 5.528 11.983 4.5 10.5 4.5z" transform="translate(-127 -136) translate(68 136) translate(59)"/>
                </g>
            </g>
        </g>
    </g>
</svg>
